raw-svg/users.svg

<svg viewBox="0 0 24 24" xmlns="http://www.w3.org/2000/svg"><path d="m14 12.25a3.75 3.75 0 1 1 3.75-3.75 3.75 3.75 0 0 1 -3.75 3.75zm0-6a2.25 2.25 0 1 0 2.25 2.25 2.25 2.25 0 0 0 -2.25-2.25z"/><path d="m21 19.25a.76.76 0 0 1 -.75-.75c0-1.95-1.06-3.25-6.25-3.25s-6.25 1.3-6.25 3.25a.75.75 0 0 1 -1.5 0c0-4.75 5.43-4.75 7.75-4.75s7.75 0 7.75 4.75a.76.76 0 0 1 -.75.75z"/><path d="m8.32 13.06h-.32a3 3 0 1 1 .58-6 .75.75 0 1 1 -.15 1.49 1.46 1.46 0 0 0 -1.09.34 1.47 1.47 0 0 0 -.54 1 1.49 1.49 0 0 0 1.35 1.64 1.53 1.53 0 0 0 .93-.22.75.75 0 0 1 .79 1.28 3 3 0 0 1 -1.55.47z"/><path d="m3 18.5a.76.76 0 0 1 -.75-.75c0-2.7.72-4.5 4.25-4.5a.75.75 0 0 1 0 1.5c-2.35 0-2.75.75-2.75 3a.76.76 0 0 1 -.75.75z"/></svg>

<svg xmlns="http://www.w3.org/2000/svg" viewBox="0 0 24 24"><g id="users"><path d="M14,12.25A3.75,3.75,0,1,1,17.75,8.5,3.75,3.75,0,0,1,14,12.25Zm0-6A2.25,2.25,0,1,0,16.25,8.5,2.25,2.25,0,0,0,14,6.25Z"/><path d="M21,19.25a.76.76,0,0,1-.75-.75c0-1.95-1.06-3.25-6.25-3.25s-6.25,1.3-6.25,3.25a.75.75,0,0,1-1.5,0c0-4.75,5.43-4.75,7.75-4.75s7.75,0,7.75,4.75A.76.76,0,0,1,21,19.25Z"/><path d="M8.32,13.06H8a3,3,0,1,1,.58-6,.75.75,0,1,1-.15,1.49,1.46,1.46,0,0,0-1.09.34,1.47,1.47,0,0,0-.54,1,1.49,1.49,0,0,0,1.35,1.64,1.53,1.53,0,0,0,.93-.22.75.75,0,0,1,.79,1.28A3,3,0,0,1,8.32,13.06Z"/><path d="M3,18.5a.76.76,0,0,1-.75-.75c0-2.7.72-4.5,4.25-4.5a.75.75,0,0,1,0,1.5c-2.35,0-2.75.75-2.75,3A.76.76,0,0,1,3,18.5Z"/></g></svg>
